dataset/flowblade/icon.svg

<?xml version="1.0" encoding="UTF-8" standalone="no"?>
<svg
   viewBox="0 0 128 128"
   style="display:inline;enable-background:new"
   version="1.0"
   id="svg11300"
   height="128"
   width="128"
   xml:space="preserve"
   xmlns:xlink="http://www.w3.org/1999/xlink"
   xmlns="http://www.w3.org/2000/svg"
   xmlns:svg="http://www.w3.org/2000/svg"
   xmlns:rdf="http://www.w3.org/1999/02/22-rdf-syntax-ns#"
   xmlns:cc="http://creativecommons.org/ns#"
   xmlns:dc="http://purl.org/dc/elements/1.1/"><title
     id="title4162">Adwaita Icon Template</title><defs
     id="defs3"><linearGradient
       id="linearGradient23"><stop
         style="stop-color:#6d6d6d;stop-opacity:1;"
         offset="0"
         id="stop23" /><stop
         style="stop-color:#a5a5a5;stop-opacity:1;"
         offset="1"
         id="stop24" /></linearGradient><linearGradient
       id="linearGradient974"><stop
         style="stop-color:#333333;stop-opacity:1;"
         offset="0"
         id="stop962" /><stop
         id="stop964"
         offset="0.04166667"
         style="stop-color:#808080;stop-opacity:1;" /><stop
         style="stop-color:#333333;stop-opacity:1;"
         offset="0.08333334"
         id="stop966" /><stop
         id="stop968"
         offset="0.91666669"
         style="stop-color:#333333;stop-opacity:1;" /><stop
         style="stop-color:#808080;stop-opacity:1;"
         offset="0.95833331"
         id="stop970" /><stop
         style="stop-color:#333333;stop-opacity:1;"
         offset="1"
         id="stop972" /></linearGradient><linearGradient
       y2="44"
       x2="464"
       y1="44"
       x1="48"
       gradientTransform="matrix(0.25,0,0,0.25,0,53)"
       gradientUnits="userSpaceOnUse"
       id="linearGradient1747"
       xlink:href="#linearGradient974" /><linearGradient
       id="linearGradient4012"><stop
         style="stop-color:#000000;stop-opacity:1;"
         offset="0.44568607"
         id="stop4014" /><stop
         style="stop-color:#666666;stop-opacity:1;"
         offset="1"
         id="stop4016" /></linearGradient><linearGradient
       xlink:href="#linearGradient4012"
       id="linearGradient5"
       x1="64"
       y1="10"
       x2="64"
       y2="114"
       gradientUnits="userSpaceOnUse" /><linearGradient
       xlink:href="#linearGradient23"
       id="linearGradient24"
       x1="87.5"
       y1="61.066757"
       x2="87.5"
       y2="107.30419"
       gradientUnits="userSpaceOnUse" /><linearGradient
       xlink:href="#linearGradient23"
       id="linearGradient26"
       x1="39.516602"
       y1="60.459164"
       x2="39.516602"
       y2="106.49757"
       gradientUnits="userSpaceOnUse" /></defs><metadata
     id="metadata4"><rdf:RDF><cc:Work
         rdf:about=""><dc:format>image/svg+xml</dc:format><dc:type
           rdf:resource="http://purl.org/dc/dcmitype/StillImage" /><dc:creator><cc:Agent><dc:title>GNOME Design Team</dc:title></cc:Agent></dc:creator><dc:source /><cc:license
           rdf:resource="http://creativecommons.org/licenses/by-sa/4.0/" /><dc:title>Adwaita Icon Template</dc:title><dc:subject><rdf:Bag /></dc:subject><dc:date /><dc:rights><cc:Agent><dc:title /></cc:Agent></dc:rights><dc:publisher><cc:Agent><dc:title /></cc:Agent></dc:publisher><dc:identifier /><dc:relation /><dc:language /><dc:coverage /><dc:description /><dc:contributor><cc:Agent><dc:title /></cc:Agent></dc:contributor></cc:Work><cc:License
         rdf:about="http://creativecommons.org/licenses/by-sa/4.0/"><cc:permits
           rdf:resource="http://creativecommons.org/ns#Reproduction" /><cc:permits
           rdf:resource="http://creativecommons.org/ns#Distribution" /><cc:requires
           rdf:resource="http://creativecommons.org/ns#Notice" /><cc:requires
           rdf:resource="http://creativecommons.org/ns#Attribution" /><cc:permits
           rdf:resource="http://creativecommons.org/ns#DerivativeWorks" /><cc:requires
           rdf:resource="http://creativecommons.org/ns#ShareAlike" /></cc:License></rdf:RDF></metadata><rect
     ry="8"
     rx="8"
     y="32"
     x="12"
     height="83.999992"
     width="104"
     id="rect1709"
     style="display:inline;fill:url(#linearGradient1747);fill-opacity:1;stroke:none;stroke-width:0.25;stroke-linecap:butt;stroke-linejoin:miter;stroke-miterlimit:4;stroke-dasharray:none;stroke-dashoffset:0;stroke-opacity:1;marker:none;marker-start:none;marker-mid:none;marker-end:none;paint-order:normal;enable-background:new" /><path
     id="path29"
     style="opacity:0.3;fill:#a5a5a5;stroke-width:10;fill-opacity:1"
     d="M 18 115.75 C 18.638824 115.91326 19.308908 116 20 116 L 32 116 L 32 110.88281 L 18 110.88281 L 18 115.75 z " /><path
     id="path30"
     style="opacity:0.3;fill:#a5a5a5;stroke-width:10;fill-opacity:1"
     d="M 96 116 L 108 116 C 108.69109 116 109.36118 115.91326 110 115.75 L 110 111.57812 L 96 111.57812 L 96 116 z " /><rect
     style="display:inline;fill:url(#linearGradient5);fill-opacity:1;stroke:none;stroke-width:0.25;stroke-linecap:butt;stroke-linejoin:miter;stroke-miterlimit:4;stroke-dasharray:none;stroke-dashoffset:0;stroke-opacity:1;marker:none;marker-start:none;marker-mid:none;marker-end:none;paint-order:normal;enable-background:new"
     id="rect1711"
     width="104"
     height="100"
     x="12"
     y="12"
     rx="8"
     ry="8" /><path
     id="path23"
     style="opacity:1;fill:url(#linearGradient26);fill-opacity:1;stroke:none;stroke-width:10"
     d="M 20 12 C 19.308908 12 18.638824 12.086741 18 12.25 L 18 111.75 C 18.638824 111.91326 19.308908 112 20 112 L 32 112 L 32 85.976562 L 41.900391 85.976562 L 42.40625 84.677734 L 32 84.677734 L 32 38.199219 L 60.527344 38.199219 L 61.033203 36.898438 L 32 36.898438 L 32 12 L 20 12 z M 23.984375 16.984375 L 28.582031 16.984375 C 29.192501 16.984375 29.683594 17.54177 29.683594 18.234375 L 29.683594 20.132812 C 29.683594 20.825419 29.192501 21.382812 28.582031 21.382812 L 23.984375 21.382812 C 23.373905 21.382812 22.882813 20.825419 22.882812 20.132812 L 22.882812 18.234375 C 22.882812 17.54177 23.373905 16.984375 23.984375 16.984375 z M 23.984375 29.099609 L 28.582031 29.099609 C 29.192501 29.099609 29.683594 29.658959 29.683594 30.351562 L 29.683594 32.25 C 29.683594 32.942605 29.192501 33.5 28.582031 33.5 L 23.984375 33.5 C 23.373905 33.5 22.882813 32.942605 22.882812 32.25 L 22.882812 30.351562 C 22.882812 29.658957 23.373905 29.099609 23.984375 29.099609 z M 23.984375 41.216797 L 28.582031 41.216797 C 29.192501 41.216797 29.683594 41.774192 29.683594 42.466797 L 29.683594 44.367188 C 29.683594 45.059793 29.192501 45.617188 28.582031 45.617188 L 23.984375 45.617188 C 23.373905 45.617188 22.882813 45.059792 22.882812 44.367188 L 22.882812 42.466797 C 22.882812 41.774192 23.373905 41.216797 23.984375 41.216797 z M 23.984375 53.333984 L 28.582031 53.333984 C 29.192501 53.333984 29.683594 53.891379 29.683594 54.583984 L 29.683594 56.484375 C 29.683594 57.17698 29.192501 57.734375 28.582031 57.734375 L 23.984375 57.734375 C 23.373905 57.734375 22.882813 57.17698 22.882812 56.484375 L 22.882812 54.583984 C 22.882812 53.891379 23.373905 53.333984 23.984375 53.333984 z M 23.984375 65.451172 L 28.582031 65.451172 C 29.192501 65.451172 29.683594 66.008567 29.683594 66.701172 L 29.683594 68.601562 C 29.683594 69.294168 29.192501 69.851562 28.582031 69.851562 L 23.984375 69.851562 C 23.373905 69.851562 22.882813 69.294168 22.882812 68.601562 L 22.882812 66.701172 C 22.882812 66.008567 23.373905 65.451172 23.984375 65.451172 z M 23.984375 77.568359 L 28.582031 77.568359 C 29.192501 77.568359 29.683594 78.125754 29.683594 78.818359 L 29.683594 80.716797 C 29.683594 81.409402 29.192501 81.96875 28.582031 81.96875 L 23.984375 81.96875 C 23.373905 81.96875 22.882813 81.409402 22.882812 80.716797 L 22.882812 78.818359 C 22.882812 78.125754 23.373905 77.568359 23.984375 77.568359 z M 23.984375 89.685547 L 28.582031 89.685547 C 29.192501 89.685547 29.683594 90.242942 29.683594 90.935547 L 29.683594 92.833984 C 29.683594 93.526589 29.192501 94.083984 28.582031 94.083984 L 23.984375 94.083984 C 23.373905 94.083984 22.882813 93.526589 22.882812 92.833984 L 22.882812 90.935547 C 22.882812 90.242942 23.373905 89.685547 23.984375 89.685547 z M 23.984375 101.80078 L 28.582031 101.80078 C 29.192501 101.80078 29.683594 102.35817 29.683594 103.05078 L 29.683594 104.95117 C 29.683594 105.64378 29.192501 106.20117 28.582031 106.20117 L 23.984375 106.20117 C 23.373905 106.20117 22.882813 105.64378 22.882812 104.95117 L 22.882812 103.05078 C 22.882812 102.35817 23.373905 101.80078 23.984375 101.80078 z " /><path
     id="path21"
     style="opacity:1;fill:url(#linearGradient24);fill-opacity:1;stroke:none;stroke-width:10"
     d="M 96 112 L 108 112 C 108.69109 112 109.36118 111.91326 110 111.75 L 110 12.25 C 109.36118 12.086741 108.69109 12 108 12 L 96 12 L 96 36.898438 L 77.037109 36.898438 L 77.037109 38.199219 L 96 38.199219 L 96 84.677734 L 65 84.677734 L 65 85.976562 L 96 85.976562 L 96 112 z M 99.417969 16.984375 L 104.01562 16.984375 C 104.6261 16.984375 105.11719 17.54177 105.11719 18.234375 L 105.11719 20.132812 C 105.11719 20.825419 104.6261 21.382812 104.01562 21.382812 L 99.417969 21.382812 C 98.807499 21.382812 98.316406 20.825419 98.316406 20.132812 L 98.316406 18.234375 C 98.316406 17.54177 98.807499 16.984375 99.417969 16.984375 z M 99.417969 29.099609 L 104.01562 29.099609 C 104.6261 29.099609 105.11719 29.658957 105.11719 30.351562 L 105.11719 32.25 C 105.11719 32.942605 104.6261 33.5 104.01562 33.5 L 99.417969 33.5 C 98.807499 33.5 98.316406 32.942605 98.316406 32.25 L 98.316406 30.351562 C 98.316406 29.65896 98.807499 29.099609 99.417969 29.099609 z M 99.417969 41.216797 L 104.01562 41.216797 C 104.6261 41.216797 105.11719 41.774192 105.11719 42.466797 L 105.11719 44.367188 C 105.11719 45.059792 104.6261 45.617188 104.01562 45.617188 L 99.417969 45.617188 C 98.807499 45.617188 98.316406 45.059793 98.316406 44.367188 L 98.316406 42.466797 C 98.316406 41.774192 98.807499 41.216797 99.417969 41.216797 z M 99.417969 53.333984 L 104.01562 53.333984 C 104.6261 53.333984 105.11719 53.891379 105.11719 54.583984 L 105.11719 56.484375 C 105.11719 57.17698 104.6261 57.734375 104.01562 57.734375 L 99.417969 57.734375 C 98.807499 57.734375 98.316406 57.17698 98.316406 56.484375 L 98.316406 54.583984 C 98.316406 53.891379 98.807499 53.333984 99.417969 53.333984 z M 99.417969 65.451172 L 104.01562 65.451172 C 104.6261 65.451172 105.11719 66.008567 105.11719 66.701172 L 105.11719 68.601562 C 105.11719 69.294168 104.6261 69.851562 104.01562 69.851562 L 99.417969 69.851562 C 98.807499 69.851562 98.316406 69.294168 98.316406 68.601562 L 98.316406 66.701172 C 98.316406 66.008567 98.807499 65.451172 99.417969 65.451172 z M 99.417969 77.568359 L 104.01562 77.568359 C 104.6261 77.568359 105.11719 78.125754 105.11719 78.818359 L 105.11719 80.716797 C 105.11719 81.409402 104.6261 81.96875 104.01562 81.96875 L 99.417969 81.96875 C 98.807499 81.96875 98.316406 81.409402 98.316406 80.716797 L 98.316406 78.818359 C 98.316406 78.125754 98.807499 77.568359 99.417969 77.568359 z M 99.417969 89.685547 L 104.01562 89.685547 C 104.6261 89.685547 105.11719 90.242942 105.11719 90.935547 L 105.11719 92.833984 C 105.11719 93.526589 104.6261 94.083984 104.01562 94.083984 L 99.417969 94.083984 C 98.807499 94.083984 98.316406 93.526589 98.316406 92.833984 L 98.316406 90.935547 C 98.316406 90.242942 98.807499 89.685547 99.417969 89.685547 z M 99.417969 101.80078 L 104.01562 101.80078 C 104.6261 101.80078 105.11719 102.35817 105.11719 103.05078 L 105.11719 104.95117 C 105.11719 105.64378 104.6261 106.20117 104.01562 106.20117 L 99.417969 106.20117 C 98.807499 106.20117 98.316406 105.64378 98.316406 104.95117 L 98.316406 103.05078 C 98.316406 102.35817 98.807499 101.80078 99.417969 101.80078 z " /><path
     id="path19"
     style="baseline-shift:baseline;display:inline;overflow:visible;vector-effect:none;fill:#e2e2e2;stroke-miterlimit:9.2;enable-background:accumulate;stop-color:#000000"
     d="m 87.545895,28.18515 -20.78906,0.05078 -26.30273,67.46875 30.4707,0.171875 -2.16992,-2.222656 c -0.88543,-0.906948 -2.24666,-1.930172 -3.53906,-3.300781 -1.2639,-1.34038 -2.37498,-2.94504 -2.80665,-4.751954 -0.0678,-2.009244 0.73645,-3.559642 2.20313,-5.054687 1.4935,-1.522381 3.64997,-2.88517 5.87305,-4.1875 l 0.008,-0.0039 0.01,-0.0059 c 1.35421,-0.824112 2.17042,-2.100016 2.23242,-3.402343 0.062,-1.302326 -0.4489,-2.470611 -1.08399,-3.611329 -1.26426,-2.270835 -3.18809,-4.590227 -4.13476,-6.724609 -0.85474,-2.312295 -0.14394,-4.016871 1.49414,-5.791016 1.64688,-1.783683 4.26309,-3.373302 6.69922,-4.65625 l 0.0352,-0.01758 0.0312,-0.01953 c 1.50221,-0.907132 2.41145,-2.169712 2.54297,-3.515625 0.13152,-1.345913 -0.39661,-2.535392 -1.02734,-3.619141 -1.25094,-2.149414 -3.04953,-4.210839 -3.48438,-5.630859 -0.48689,-2.606685 0.68456,-4.120981 2.58789,-5.507812 1.92217,-1.400552 4.48729,-2.330599 6.2168,-3.197266 z" /></svg>

<svg xmlns="http://www.w3.org/2000/svg" xmlns:xlink="http://www.w3.org/1999/xlink" xml:space="preserve" width="128" height="128" style="display:inline" viewBox="0 0 128 128"><title>Adwaita Icon Template</title><defs><linearGradient id="c"><stop offset="0" style="stop-color:#6d6d6d;stop-opacity:1"/><stop offset="1" style="stop-color:#a5a5a5;stop-opacity:1"/></linearGradient><linearGradient id="a"><stop offset="0" style="stop-color:#333;stop-opacity:1"/><stop offset=".042" style="stop-color:gray;stop-opacity:1"/><stop offset=".083" style="stop-color:#333;stop-opacity:1"/><stop offset=".917" style="stop-color:#333;stop-opacity:1"/><stop offset=".958" style="stop-color:gray;stop-opacity:1"/><stop offset="1" style="stop-color:#333;stop-opacity:1"/></linearGradient><linearGradient xlink:href="#a" id="d" x1="48" x2="464" y1="44" y2="44" gradientTransform="matrix(.25 0 0 .25 0 53)" gradientUnits="userSpaceOnUse"/><linearGradient id="b"><stop offset=".446" style="stop-color:#000;stop-opacity:1"/><stop offset="1" style="stop-color:#666;stop-opacity:1"/></linearGradient><linearGradient xlink:href="#b" id="e" x1="64" x2="64" y1="10" y2="114" gradientUnits="userSpaceOnUse"/><linearGradient xlink:href="#c" id="g" x1="87.5" x2="87.5" y1="61.067" y2="107.304" gradientUnits="userSpaceOnUse"/><linearGradient xlink:href="#c" id="f" x1="39.517" x2="39.517" y1="60.459" y2="106.498" gradientUnits="userSpaceOnUse"/></defs><rect width="104" height="84" x="12" y="32" rx="8" ry="8" style="display:inline;fill:url(#d);fill-opacity:1;stroke:none;stroke-width:.25;stroke-linecap:butt;stroke-linejoin:miter;stroke-miterlimit:4;stroke-dasharray:none;stroke-dashoffset:0;stroke-opacity:1;marker:none;marker-start:none;marker-mid:none;marker-end:none;paint-order:normal"/><path d="M18 115.75c.639.163 1.309.25 2 .25h12v-5.117H18zM96 116h12c.691 0 1.361-.087 2-.25v-4.172H96z" style="opacity:.3;fill:#a5a5a5;stroke-width:10;fill-opacity:1"/><rect width="104" height="100" x="12" y="12" rx="8" ry="8" style="display:inline;fill:url(#e);fill-opacity:1;stroke:none;stroke-width:.25;stroke-linecap:butt;stroke-linejoin:miter;stroke-miterlimit:4;stroke-dasharray:none;stroke-dashoffset:0;stroke-opacity:1;marker:none;marker-start:none;marker-mid:none;marker-end:none;paint-order:normal"/><path d="M20 12c-.691 0-1.361.087-2 .25v99.5c.639.163 1.309.25 2 .25h12V85.977h9.9l.506-1.3H32V38.2h28.527l.506-1.3H32V12zm3.984 4.984h4.598c.61 0 1.102.558 1.102 1.25v1.899c0 .692-.491 1.25-1.102 1.25h-4.598c-.61 0-1.101-.558-1.101-1.25v-1.899c0-.692.49-1.25 1.101-1.25m0 12.116h4.598c.61 0 1.102.559 1.102 1.252v1.898c0 .693-.491 1.25-1.102 1.25h-4.598c-.61 0-1.101-.557-1.101-1.25v-1.898c0-.693.49-1.252 1.101-1.252m0 12.117h4.598c.61 0 1.102.557 1.102 1.25v1.9c0 .693-.491 1.25-1.102 1.25h-4.598c-.61 0-1.101-.557-1.101-1.25v-1.9c0-.693.49-1.25 1.101-1.25m0 12.117h4.598c.61 0 1.102.557 1.102 1.25v1.9c0 .693-.491 1.25-1.102 1.25h-4.598c-.61 0-1.101-.557-1.101-1.25v-1.9c0-.693.49-1.25 1.101-1.25m0 12.117h4.598c.61 0 1.102.558 1.102 1.25v1.9c0 .693-.491 1.25-1.102 1.25h-4.598c-.61 0-1.101-.557-1.101-1.25v-1.9c0-.692.49-1.25 1.101-1.25m0 12.117h4.598c.61 0 1.102.558 1.102 1.25v1.899c0 .692-.491 1.252-1.102 1.252h-4.598c-.61 0-1.101-.56-1.101-1.252v-1.899c0-.692.49-1.25 1.101-1.25m0 12.118h4.598c.61 0 1.102.557 1.102 1.25v1.898c0 .693-.491 1.25-1.102 1.25h-4.598c-.61 0-1.101-.557-1.101-1.25v-1.898c0-.693.49-1.25 1.101-1.25m0 12.115h4.598c.61 0 1.102.557 1.102 1.25v1.9c0 .693-.491 1.25-1.102 1.25h-4.598c-.61 0-1.101-.557-1.101-1.25v-1.9c0-.693.49-1.25 1.101-1.25" style="opacity:1;fill:url(#f);fill-opacity:1;stroke:none;stroke-width:10"/><path d="M96 112h12c.691 0 1.361-.087 2-.25v-99.5a8 8 0 0 0-2-.25H96v24.898H77.037V38.2H96v46.479H65v1.299h31zm3.418-95.016h4.598c.61 0 1.101.558 1.101 1.25v1.899c0 .692-.49 1.25-1.101 1.25h-4.598c-.61 0-1.102-.558-1.102-1.25v-1.899c0-.692.491-1.25 1.102-1.25m0 12.116h4.598c.61 0 1.101.559 1.101 1.252v1.898c0 .693-.49 1.25-1.101 1.25h-4.598c-.61 0-1.102-.557-1.102-1.25v-1.898c0-.693.491-1.252 1.102-1.252m0 12.117h4.598c.61 0 1.101.557 1.101 1.25v1.9c0 .693-.49 1.25-1.101 1.25h-4.598c-.61 0-1.102-.557-1.102-1.25v-1.9c0-.693.491-1.25 1.102-1.25m0 12.117h4.598c.61 0 1.101.557 1.101 1.25v1.9c0 .693-.49 1.25-1.101 1.25h-4.598c-.61 0-1.102-.557-1.102-1.25v-1.9c0-.693.491-1.25 1.102-1.25m0 12.117h4.598c.61 0 1.101.558 1.101 1.25v1.9c0 .693-.49 1.25-1.101 1.25h-4.598c-.61 0-1.102-.557-1.102-1.25v-1.9c0-.692.491-1.25 1.102-1.25m0 12.117h4.598c.61 0 1.101.558 1.101 1.25v1.899c0 .692-.49 1.252-1.101 1.252h-4.598c-.61 0-1.102-.56-1.102-1.252v-1.899c0-.692.491-1.25 1.102-1.25m0 12.118h4.598c.61 0 1.101.557 1.101 1.25v1.898c0 .693-.49 1.25-1.101 1.25h-4.598c-.61 0-1.102-.557-1.102-1.25v-1.898c0-.693.491-1.25 1.102-1.25m0 12.115h4.598c.61 0 1.101.557 1.101 1.25v1.9c0 .693-.49 1.25-1.101 1.25h-4.598c-.61 0-1.102-.557-1.102-1.25v-1.9c0-.693.491-1.25 1.102-1.25" style="opacity:1;fill:url(#g);fill-opacity:1;stroke:none;stroke-width:10"/><path d="m87.546 28.185-20.79.05-26.302 67.47 30.47.172-2.17-2.223c-.885-.907-2.246-1.93-3.538-3.3-1.264-1.341-2.375-2.946-2.807-4.753-.068-2.01.737-3.56 2.203-5.055 1.494-1.522 3.65-2.885 5.873-4.187l.008-.004.01-.006c1.355-.824 2.17-2.1 2.233-3.402.062-1.302-.45-2.47-1.084-3.611-1.264-2.271-3.188-4.59-4.135-6.725-.855-2.312-.144-4.017 1.494-5.791 1.647-1.784 4.263-3.373 6.7-4.656l.035-.018.03-.02c1.503-.907 2.412-2.17 2.544-3.515.131-1.346-.397-2.535-1.028-3.62-1.25-2.149-3.05-4.21-3.484-5.63-.487-2.607.685-4.121 2.588-5.508 1.922-1.4 4.487-2.33 6.217-3.197z" style="baseline-shift:baseline;display:inline;overflow:visible;vector-effect:none;fill:#e2e2e2;stroke-miterlimit:9.2;stop-color:#000"/></svg>
